styles/5/Numix/48/places/yellow-folder-move.svg

<?xml version="1.0" encoding="UTF-8" standalone="no"?>
<svg
   xmlns:dc="http://purl.org/dc/elements/1.1/"
   xmlns:cc="http://creativecommons.org/ns#"
   xmlns:rdf="http://www.w3.org/1999/02/22-rdf-syntax-ns#"
   xmlns:svg="http://www.w3.org/2000/svg"
   xmlns="http://www.w3.org/2000/svg"
   xmlns:sodipodi="http://sodipodi.sourceforge.net/DTD/sodipodi-0.dtd"
   xmlns:inkscape="http://www.inkscape.org/namespaces/inkscape"
   viewBox="0 0 48 48"
   id="svg2"
   version="1.1"
   inkscape:version="0.91 r13725"
   sodipodi:docname="blue-folder-move.svg">
  <metadata
     id="metadata28">
    <rdf:RDF>
      <cc:Work
         rdf:about="">
        <dc:format>image/svg+xml</dc:format>
        <dc:type
           rdf:resource="http://purl.org/dc/dcmitype/StillImage" />
      </cc:Work>
    </rdf:RDF>
  </metadata>
  <defs
     id="defs26" />
  <sodipodi:namedview
     pagecolor="#ffffff"
     bordercolor="#666666"
     borderopacity="1"
     objecttolerance="10"
     gridtolerance="10"
     guidetolerance="10"
     inkscape:pageopacity="0"
     inkscape:pageshadow="2"
     inkscape:window-width="722"
     inkscape:window-height="480"
     id="namedview24"
     showgrid="false"
     inkscape:zoom="4.9166667"
     inkscape:cx="24"
     inkscape:cy="15.864407"
     inkscape:window-x="10"
     inkscape:window-y="34"
     inkscape:window-maximized="0"
     inkscape:current-layer="svg2" />
  <rect
     ry="2.3440001"
     rx="2.283"
     y="10.997786"
     x="6"
     height="15"
     width="21"
     style="fill:#ffb300;fill-opacity:1;stroke:none"
     id="rect8" />
  <path
     d="m 8.283,10.9978 c -1.265,0 -2.283,1 -2.283,2.5 l 0,1 c 0,-1.385 1.018,-2.5 2.283,-2.5 l 16.435,0 c 1.265,0 2.283,1.115 2.283,2.5 l 0,-1 c 0,-1.385 -1.018,-2.5 -2.283,-2.5 z"
     style="opacity:0.1;fill:#ffffff;fill-opacity:1;stroke:none"
     id="path10"
     inkscape:connector-curvature="0" />
  <path
     d="m 8.283,14.9978 3.652,0 c 5.02,-0.472 4.109,-6 7.304,-6 l 5.478,0 c 1.265,0 2.283,1.053 2.283,2.361 l 0,12.278 c 0,1.308 -1.018,2.361 -2.283,2.361 l -16.435,0 c -1.265,0 -2.283,-1.053 -2.283,-2.361 l 0,-6.611 c 0,-1.417 0.913,-2.028 2.283,-2.028 z"
     style="fill:#ffca28;fill-opacity:1;stroke:none"
     id="path12"
     inkscape:connector-curvature="0" />
  <path
     d="m 6,22.8078 0,0.913 c 0,1.265 1.018,2.283 2.283,2.283 l 16.435,0 c 1.265,0 2.283,-1.018 2.283,-2.283 l 0,-0.913 c 0,1.265 -1.018,2.196 -2.283,2.196 l -16.435,0 C 7.018,25.0038 6,24.0728 6,22.8078 Z"
     style="opacity:0.075;fill:#000000;fill-opacity:1;stroke:none"
     id="path14"
     inkscape:connector-curvature="0" />
  <path
     style="fill:#ffffff;fill-opacity:1;stroke:none;opacity:0.5"
     d="M 19.238281 8.9980469 C 17.953799 8.9980469 17.332048 9.8988318 16.722656 10.998047 L 8.2832031 10.998047 C 7.7032374 10.998047 7.1811258 11.215684 6.7792969 11.587891 C 6.7425244 11.621121 6.7025709 11.649974 6.6679688 11.685547 C 6.2559392 12.10914 6 12.693064 6 13.341797 L 6 13.498047 L 6 14.498047 L 6 17.003906 C 5.9999461 17.011562 5.9980469 17.017687 5.9980469 17.025391 L 5.9980469 23.636719 C 5.9980469 23.642757 5.9999567 23.648269 6 23.654297 C 6.0000048 23.654959 5.9999947 23.655588 6 23.65625 L 6 23.720703 C 6 24.985703 7.0182031 26.003906 8.2832031 26.003906 L 24.71875 26.003906 C 25.98375 26.003906 27.001953 24.985703 27.001953 23.720703 L 27.001953 22.808594 C 27.001953 22.815349 27.000058 22.821388 27 22.828125 L 27 14.476562 C 27.000057 14.483899 27.001953 14.490695 27.001953 14.498047 L 27.001953 13.498047 C 27.001953 13.490695 27.000057 13.483899 27 13.476562 L 27 13.341797 L 27 11.359375 C 27 10.051375 25.981797 8.9980469 24.716797 8.9980469 L 19.238281 8.9980469 z "
     id="rect4167" />
  <rect
     id="rect16"
     style="fill:#ffb300;fill-opacity:1;stroke:none"
     ry="2.3440001"
     rx="2.283"
     y="23.997786"
     x="21"
     height="15"
     width="21" />
  <path
     inkscape:connector-curvature="0"
     id="path18"
     style="opacity:0.2;fill:#ffffff;fill-opacity:1;stroke:none"
     d="m 23.283,23.9978 c -1.265,0 -2.283,1 -2.283,2.5 l 0,1 c 0,-1.385 1.018,-2.5 2.283,-2.5 l 16.435,0 c 1.265,0 2.283,1.115 2.283,2.5 l 0,-1 c 0,-1.385 -1.018,-2.5 -2.283,-2.5 z" />
  <path
     inkscape:connector-curvature="0"
     id="path20"
     style="fill:#ffca28;fill-opacity:1;stroke:none"
     d="m 23.283,27.9978 3.652,0 c 5.02,-0.472 4.109,-6 7.304,-6 l 5.478,0 c 1.265,0 2.283,1.053 2.283,2.361 l 0,12.278 c 0,1.308 -1.018,2.361 -2.283,2.361 l -16.435,0 c -1.265,0 -2.283,-1.053 -2.283,-2.361 l 0,-6.611 c 0,-1.417 0.913,-2.028 2.283,-2.028 z" />
  <path
     inkscape:connector-curvature="0"
     id="path22"
     style="opacity:0.15;fill:#000000;fill-opacity:1;stroke:none"
     d="m 21,35.8078 0,0.913 c 0,1.265 1.018,2.283 2.283,2.283 l 16.435,0 c 1.265,0 2.283,-1.018 2.283,-2.283 l 0,-0.913 c 0,1.265 -1.018,2.196 -2.283,2.196 l -16.435,0 c -1.265,0 -2.283,-0.931 -2.283,-2.196 z" />
</svg>

<svg xmlns="http://www.w3.org/2000/svg" viewBox="0 0 48 48">
 <rect rx="2.283" y="10.998" x="6" width="21" height="15" ry="2.344" style="fill:#ffb300;fill-opacity:1;stroke:none"/>
 <path d="m 8.283 10.998 c -1.265 0 -2.283 1 -2.283 2.5 l 0 1 c 0 -1.385 1.018 -2.5 2.283 -2.5 l 16.435 0 c 1.265 0 2.283 1.115 2.283 2.5 l 0 -1 c 0 -1.385 -1.018 -2.5 -2.283 -2.5 z" style="fill:#fff;opacity:0.1;fill-opacity:1;stroke:none"/>
 <path d="m 8.283 14.998 3.652 0 c 5.02 -0.472 4.109 -6 7.304 -6 l 5.478 0 c 1.265 0 2.283 1.053 2.283 2.361 l 0 12.278 c 0 1.308 -1.018 2.361 -2.283 2.361 l -16.435 0 c -1.265 0 -2.283 -1.053 -2.283 -2.361 l 0 -6.611 c 0 -1.417 0.913 -2.028 2.283 -2.028 z" style="fill:#ffca28;fill-opacity:1;stroke:none"/>
 <path d="m 6,22.8078 0,0.913 c 0,1.265 1.018,2.283 2.283,2.283 l 16.435,0 c 1.265,0 2.283,-1.018 2.283,-2.283 l 0,-0.913 c 0,1.265 -1.018,2.196 -2.283,2.196 l -16.435,0 C 7.018,25.0038 6,24.0728 6,22.8078 Z" style="fill:#000;opacity:0.075;fill-opacity:1;stroke:none"/>
 <path d="m 19.238 8.998 c -1.284 0 -1.906 0.901 -2.516 2 l -8.439 0 c -0.58 0 -1.102 0.218 -1.504 0.59 c -0.037 0.033 -0.077 0.062 -0.111 0.098 c -0.412 0.424 -0.668 1.01 -0.668 1.656 l 0 0.156 l 0 1 l 0 2.506 c 0 0.008 -0.002 0.014 -0.002 0.021 l 0 6.611 c 0 0.006 0.002 0.012 0.002 0.018 c 0 0.001 0 0.001 0 0.002 l 0 0.064 c 0 1.265 1.018 2.283 2.283 2.283 l 16.436 0 c 1.265 0 2.283 -1.018 2.283 -2.283 l 0 -0.912 c 0 0.007 -0.002 0.013 -0.002 0.02 l 0 -8.352 c 0 0.007 0.002 0.014 0.002 0.021 l 0 -1 c 0 -0.007 -0.002 -0.014 -0.002 -0.021 l 0 -0.135 l 0 -1.982 c 0 -1.308 -1.018 -2.361 -2.283 -2.361 l -5.479 0 z" style="fill:#fff;opacity:0.5;fill-opacity:1;stroke:none"/>
 <rect rx="2.283" y="23.998" x="21" width="21" height="15" ry="2.344" style="fill:#ffb300;fill-opacity:1;stroke:none"/>
 <path d="m 23.283 23.998 c -1.265 0 -2.283 1 -2.283 2.5 l 0 1 c 0 -1.385 1.018 -2.5 2.283 -2.5 l 16.435 0 c 1.265 0 2.283 1.115 2.283 2.5 l 0 -1 c 0 -1.385 -1.018 -2.5 -2.283 -2.5 z" style="fill:#fff;opacity:0.2;fill-opacity:1;stroke:none"/>
 <path d="m 23.283 27.998 3.652 0 c 5.02 -0.472 4.109 -6 7.304 -6 l 5.478 0 c 1.265 0 2.283 1.053 2.283 2.361 l 0 12.278 c 0 1.308 -1.018 2.361 -2.283 2.361 l -16.435 0 c -1.265 0 -2.283 -1.053 -2.283 -2.361 l 0 -6.611 c 0 -1.417 0.913 -2.028 2.283 -2.028 z" style="fill:#ffca28;fill-opacity:1;stroke:none"/>
 <path d="m 21 35.808 0 0.913 c 0 1.265 1.018 2.283 2.283 2.283 l 16.435 0 c 1.265 0 2.283 -1.018 2.283 -2.283 l 0 -0.913 c 0 1.265 -1.018 2.196 -2.283 2.196 l -16.435 0 c -1.265 0 -2.283 -0.931 -2.283 -2.196 z" style="fill:#000;opacity:0.15;fill-opacity:1;stroke:none"/>
</svg>
